X:19
T: By the Stream So Cool and Clear 
N: HA019
O: Europa, Mitteleuropa, Deutschland
N: nur 6 Zeilen, Vorschlge und Triller
M: 4/4
L: 1/8
K: F
F3DC2D2 | F2A2G3
F | F2F2c3d | c2A2c2d2 |
F2F2A2c2 | c3cA2G2 |
A2c2f3g | e2c2d2f2 |
F2F2d3c | f2cAG3
c | D2F2A3A | d2cAG2F2

@@@ Tune index: 7244
